common/svg/home-filled-icon.svg

<svg fill="none" height="20" viewBox="0 0 20 20" width="20" xmlns="http://www.w3.org/2000/svg"><path d="m1 6.5v12.5h6.63158v-6.2036c0-.4827.28903-.9184.7337-1.1062 1.04515-.4413 2.22432-.4413 3.26942 0 .4447.1878.7337.6235.7337 1.1062v6.2036h6.6316v-12.5l-9-5.5z" fill="#000"/></svg>

<svg width="20" height="20" viewBox="0 0 20 20" fill="none" xmlns="http://www.w3.org/2000/svg">
<path d="M1 6.5V19H7.63158V12.7964C7.63158 12.3137 7.92061 11.878 8.36528 11.6902C9.41043 11.2489 10.5896 11.2489 11.6347 11.6902C12.0794 11.878 12.3684 12.3137 12.3684 12.7964V19H19V6.5L10 1L1 6.5Z" fill="black"/>
</svg>
